;FLAVOR:Marlin
;TIME:16155
;Filament used: 8.47881m
;Layer height: 0.12
;MINX:68.84
;MINY:42.056
;MINZ:0.3
;MAXX:151.16
;MAXY:161.796
;MAXZ:21.62
;POSTPROCESSED
;Generated with Cura_SteamEngine 4.2.1
M140 S60
M105
M190 S60
M104 S205
M105
M109 S205
M82 ;absolute extrusion mode
; Ender 3 Custom Start G-code
G28 ; Home all axes
G29 ; abl
G92 E0 ; Reset Extruder
G1 Z2.0 F3000 ; Move Z Axis up little to prevent scratching of Heat Bed
G1 X0.1 Y20 Z0.3 F5000.0 ; Move to start position
G1 X0.1 Y200.0 Z0.3 F1500.0 E15 ; Draw the first line
G1 X0.4 Y200.0 Z0.3 F5000.0 ; Move to side a little
G1 X0.4 Y20 Z0.3 F1500.0 E30 ; Draw the second line
G92 E0 ; Reset Extruder
G1 Z2.0 F3000 ; Move Z Axis up little to prevent scratching of Heat Bed
M141 S28
G92 E0
G92 E0
G1 F2100 E-5.5
;LAYER_COUNT:177
G4 P1
M107
G0 F7500 X71.82 Y46.883 Z0.3
;TYPE:SKIRT
G1 F3000 E0
G1 F1500 X72.383 Y46.151 E0.05868
G1 X73.007 Y45.471 E0.11732
G1 X74.011 Y44.586 E0.20236
G1 X74.256 Y44.396 E0.22207
G1 X75.01 Y43.863 E0.28074
G1 X75.806 Y43.396 E0.33938
G1 X76.339 Y43.133 E0.37714
G1 X76.548 Y43.037 E0.39176
G1 X77.403 Y42.688 E0.45044
G1 X78.285 Y42.415 E0.50911
G1 X79.187 Y42.219 E0.56776
G1 X80.103 Y42.102 E0.62643
G1 X80.707 Y42.068 E0.66487
G1 X81 Y42.06 E0.6835
G1 X81.298 Y42.056 E0.70244
G1 X92.607 Y42.063 E1.42103
G1 X138.293 Y42.063 E4.32399
G1 X138.446 Y42.064 E4.33371
G1 X139.144 Y42.074 E4.37807
G1 X140.065 Y42.127 E4.43669
G1 X140.979 Y42.26 E4.49538
G1 X142.134 Y42.547 E4.571
G1 X142.309 Y42.601 E4.58264
G1 X143.179 Y42.911 E4.64132
G1 X144.018 Y43.295 E4.69995
G1 X144.764 Y43.715 E4.75435
G1 X144.939 Y43.823 E4.76742
G1 X145.703 Y44.342 E4.82611
G1 X146.42 Y44.924 E4.88479
G1 X147.083 Y45.567 E4.94347
G1 X147.765 Y46.362 E5.01003
G1 X147.955 Y46.607 E5.02973
G1 X148.488 Y47.361 E5.0884
G1 X148.955 Y48.157 E5.14704
G1 X149.218 Y48.69 E5.18481
G1 X149.314 Y48.899 E5.19942
G1 X149.663 Y49.754 E5.2581
G1 X149.936 Y50.636 E5.31677
G1 X150.132 Y51.538 E5.37542
G1 X150.249 Y52.454 E5.4341
G1 X150.283 Y53.058 E5.47254
G1 X150.291 Y53.351 E5.49116
G1 X150.295 Y53.649 E5.5101
G1 X150.288 Y64.108 E6.17468
G1 X150.288 Y93.417 E8.03702
G1 X150.325 Y96.063 E8.20517
G1 X150.431 Y98.567 E8.36442
G1 X150.608 Y101.062 E8.52336
G1 X150.995 Y104.737 E8.75816
G1 X151.064 Y105.283 E8.79313
G1 X151.145 Y106.408 E8.8648
G1 X151.158 Y107.082 E8.90764
G1 X151.16 Y107.288 E8.92073
G1 X151.16 Y148.903 E11.56501
G1 X151.159 Y149.051 E11.57442
G1 X151.149 Y149.773 E11.6203
G1 X151.096 Y150.694 E11.67892
G1 X150.991 Y151.46 E11.72805
G1 X150.944 Y151.729 E11.7454
G1 X150.865 Y152.132 E11.77149
G1 X150.798 Y152.444 E11.79177
G1 X150.566 Y153.338 E11.85046
G1 X150.256 Y154.208 E11.90914
G1 X149.873 Y155.047 E11.96775
G1 X149.386 Y155.903 E12.03032
G1 X149.257 Y156.107 E12.04566
G1 X149.029 Y156.452 E12.07194
G1 X148.846 Y156.718 E12.09245
G1 X148.291 Y157.455 E12.15108
G1 X147.673 Y158.142 E12.20979
G1 X146.999 Y158.772 E12.26842
G1 X146.334 Y159.297 E12.32225
G1 X146.136 Y159.441 E12.33781
G1 X145.673 Y159.759 E12.3735
G1 X145.379 Y159.95 E12.39578
G1 X144.584 Y160.419 E12.45443
G1 X143.751 Y160.818 E12.51312
G1 X142.887 Y161.142 E12.57175
G1 X141.976 Y161.396 E12.63184
G1 X141.747 Y161.449 E12.64678
G1 X141.228 Y161.556 E12.68045
G1 X140.894 Y161.616 E12.70201
G1 X139.979 Y161.74 E12.76069
G1 X139.203 Y161.782 E12.81007
G1 X138.543 Y161.794 E12.85201
G1 X138.349 Y161.796 E12.86434
G1 X81.707 Y161.796 E16.46346
G1 X81.554 Y161.795 E16.47319
G1 X80.856 Y161.785 E16.51754
G1 X79.935 Y161.732 E16.57616
G1 X79.154 Y161.623 E16.62627
G1 X78.888 Y161.576 E16.64343
G1 X78.512 Y161.503 E16.66777
G1 X78.199 Y161.436 E16.68811
G1 X77.305 Y161.204 E16.7468
G1 X76.435 Y160.895 E16.80546
G1 X75.595 Y160.512 E16.86412
G1 X74.733 Y160.022 E16.92713
G1 X74.529 Y159.893 E16.94246
G1 X74.157 Y159.646 E16.97084
G1 X73.887 Y159.459 E16.99171
G1 X73.151 Y158.901 E17.05039
G1 X72.467 Y158.282 E17.10901
G1 X71.838 Y157.605 E17.16773
G1 X71.311 Y156.933 E17.222
G1 X71.166 Y156.732 E17.23774
G1 X70.87 Y156.3 E17.27102
G1 X70.683 Y156.012 E17.29284
G1 X70.215 Y155.217 E17.35146
G1 X69.816 Y154.384 E17.41015
G1 X69.492 Y153.52 E17.46878
G1 X69.231 Y152.577 E17.53095
G1 X69.179 Y152.349 E17.54581
G1 X69.08 Y151.864 E17.57726
G1 X69.02 Y151.53 E17.59883
G1 X68.896 Y150.615 E17.6575
G1 X68.854 Y149.829 E17.70751
G1 X68.842 Y149.132 E17.75181
G1 X68.84 Y148.948 E17.7635
G1 X68.84 Y107.343 E20.40715
G1 X68.841 Y107.19 E20.41687
G1 X68.851 Y106.493 E20.46117
G1 X68.93 Y105.344 E20.53435
G1 X68.965 Y105.058 E20.55266
G1 X69.269 Y102.39 E20.72328
G1 X69.482 Y99.88 E20.88335
G1 X69.622 Y97.407 E21.04074
G1 X69.706 Y93.505 E21.28873
G1 X69.712 Y85.594 E21.79141
G1 X69.712 Y54.039 E23.79647
G1 X69.713 Y53.883 E23.80638
G1 X69.723 Y53.199 E23.84985
G1 X69.777 Y52.277 E23.90853
G1 X69.91 Y51.364 E23.96716
G1 X70.121 Y50.465 E24.02583
G1 X70.41 Y49.588 E24.08451
G1 X70.733 Y48.824 E24.13721
G1 X70.895 Y48.479 E24.16143
G1 X71.323 Y47.661 E24.22009
G1 X71.82 Y46.883 E24.27876
G0 F7500 X72.202 Y47.105
G1 F1500 X72.757 Y46.391 E24.33622
G1 X73.372 Y45.729 E24.39363
G1 X74.281 Y44.934 E24.47037
G1 X74.526 Y44.744 E24.49007
G1 X75.264 Y44.222 E24.54751
G1 X76.045 Y43.768 E24.60491
G1 X76.523 Y43.533 E24.63875
G1 X76.732 Y43.437 E24.65337
G1 X77.57 Y43.096 E24.71085
G1 X78.434 Y42.831 E24.76828
G1 X79.318 Y42.643 E24.82571
G1 X80.215 Y42.534 E24.88312
G1 X80.719 Y42.508 E24.91519
G1 X81.012 Y42.5 E24.93381
G1 X81.297 Y42.496 E24.95193
G1 X92.606 Y42.503 E25.67052
G1 X138.293 Y42.503 E28.57354
G1 X138.439 Y42.504 E28.58282
G1 X139.137 Y42.514 E28.62718
G1 X140.04 Y42.567 E28.68466
G1 X140.934 Y42.699 E28.74208
G1 X142.004 Y42.967 E28.81217
G1 X142.179 Y43.021 E28.8238
G1 X143.031 Y43.326 E28.88131
G1 X143.851 Y43.704 E28.93868
G1 X144.533 Y44.09 E28.98847
G1 X144.708 Y44.198 E29.00154
G1 X145.456 Y44.706 E29.059
G1 X146.156 Y45.279 E29.11648
G1 X146.802 Y45.911 E29.1739
G1 X147.417 Y46.632 E29.23412
G1 X147.607 Y46.877 E29.25382
G1 X148.129 Y47.615 E29.31126
G1 X148.583 Y48.396 E29.36866
G1 X148.818 Y48.874 E29.4025
G1 X148.914 Y49.083 E29.41712
G1 X149.255 Y49.921 E29.4746
G1 X149.52 Y50.785 E29.53203
G1 X149.708 Y51.669 E29.58946
G1 X149.817 Y52.566 E29.64687
G1 X149.843 Y53.07 E29.67894
G1 X149.851 Y53.363 E29.69756
G1 X149.855 Y53.649 E29.71574
G1 X149.848 Y64.108 E30.38032
G1 X149.848 Y93.426 E32.24323
G1 X149.885 Y96.052 E32.41011
G1 X149.994 Y98.617 E32.57324
G1 X150.169 Y101.081 E32.7302
G1 X150.564 Y104.839 E32.97031
G1 X150.627 Y105.338 E33.00227
G1 X150.705 Y106.417 E33.07101
G1 X150.718 Y107.091 E33.11384
G1 X150.72 Y107.288 E33.12636
G1 X150.72 Y148.903 E35.77065
G1 X150.719 Y149.045 E35.77967
G1 X150.709 Y149.767 E35.82555
G1 X150.657 Y150.669 E35.88296
G1 X150.557 Y151.384 E35.92884
G1 X150.51 Y151.653 E35.94619
G1 X150.435 Y152.04 E35.97123
G1 X150.368 Y152.352 E35.99151
G1 X150.139 Y153.226 E36.04892
G1 X149.834 Y154.077 E36.10636
G1 X149.455 Y154.898 E36.16382
G1 X149.014 Y155.668 E36.22021
G1 X148.885 Y155.872 E36.23554
G1 X148.667 Y156.203 E36.26073
G1 X148.484 Y156.469 E36.28124
G1 X147.939 Y157.19 E36.33867
G1 X147.333 Y157.86 E36.39607
G1 X146.669 Y158.475 E36.45358
G1 X146.075 Y158.941 E36.50156
G1 X145.877 Y159.085 E36.51711
G1 X145.434 Y159.39 E36.55129
G1 X145.14 Y159.581 E36.57357
G1 X144.361 Y160.04 E36.63102
G1 X143.544 Y160.428 E36.68849
G1 X142.696 Y160.742 E36.74595
G1 X141.876 Y160.968 E36.79999
G1 X141.647 Y161.021 E36.81493
G1 X141.15 Y161.123 E36.84717
G1 X140.816 Y161.183 E36.86873
G1 X139.92 Y161.303 E36.92617
G1 X139.195 Y161.342 E36.97231
G1 X138.535 Y161.354 E37.01425
G1 X138.349 Y161.356 E37.02607
G1 X81.707 Y161.356 E40.6252
G1 X81.561 Y161.355 E40.63447
G1 X80.863 Y161.345 E40.67883
G1 X79.96 Y161.292 E40.73631
G1 X79.231 Y161.19 E40.78308
G1 X78.965 Y161.143 E40.80024
G1 X78.604 Y161.073 E40.82361
G1 X78.291 Y161.006 E40.84395
G1 X77.416 Y160.777 E40.90142
G1 X76.565 Y160.473 E40.95884
G1 X75.744 Y160.094 E41.0163
G1 X74.968 Y159.65 E41.07311
G1 X74.764 Y159.521 E41.08844
G1 X74.407 Y159.285 E41.11564
G1 X74.137 Y159.098 E41.13651
G1 X73.417 Y158.551 E41.19396
G1 X72.749 Y157.942 E41.2514
G1 X72.137 Y157.277 E41.30882
G1 X71.668 Y156.675 E41.35732
G1 X71.523 Y156.474 E41.37306
G1 X71.239 Y156.061 E41.40491
G1 X71.052 Y155.773 E41.42673
G1 X70.594 Y154.993 E41.48421
G1 X70.206 Y154.177 E41.54162
G1 X69.893 Y153.329 E41.59906
G1 X69.66 Y152.48 E41.655
G1 X69.608 Y152.252 E41.66986
G1 X69.513 Y151.786 E41.70008
G1 X69.453 Y151.452 E41.72164
G1 X69.333 Y150.556 E41.77908
G1 X69.294 Y149.821 E41.82585
G1 X69.282 Y149.124 E41.87014
G1 X69.28 Y148.948 E41.88133
G1 X69.28 Y107.343 E44.52498
G1 X69.281 Y107.196 E44.53432
G1 X69.291 Y106.499 E44.57861
G1 X69.366 Y105.398 E44.64873
G1 X69.413 Y105.016 E44.67319
G1 X69.707 Y102.441 E44.83787
G1 X69.918 Y99.944 E44.9971
G1 X70.062 Y97.413 E45.15818
G1 X70.146 Y93.514 E45.40599
G1 X70.152 Y85.594 E45.90924
G1 X70.152 Y54.039 E47.9143
G1 X70.153 Y53.89 E47.92377
G1 X70.163 Y53.206 E47.96723
G1 X70.216 Y52.303 E48.02471
G1 X70.349 Y51.409 E48.08214
G1 X70.56 Y50.53 E48.13958
G1 X70.848 Y49.673 E48.19703
G1 X71.131 Y49.011 E48.24278
G1 X71.293 Y48.666 E48.26699
G1 X71.713 Y47.866 E48.32441
G1 X72.202 Y47.105 E48.38188
G1 F2100 E42.88188
G1 F600 Z0.5
;MESH:ef5b5413-db30-4f52-a82d-705433b7a3da.stl
G0 F7500 X127.4 Y96.759 Z0.5
;TYPE:WALL-OUTER
G1 F600 Z0.3
G1 F3000 E48.38188
G1 F1500 X81.033 Y96.759 E51.32812
G1 X80.92 Y96.723 E51.33565
G1 X80.744 Y96.61 E51.34894
G1 X80.624 Y96.423 E51.36306
G1 X80.584 Y96.33 E51.3695
G1 X80.592 Y85.601 E52.05123
G1 X80.592 Y78.15 E52.52468
G1 X80.592 Y55.71 E53.95056
G1 X80.592 Y53.384 E54.09836
G1 X80.628 Y53.271 E54.10589
G1 X80.741 Y53.095 E54.11918
G1 X80.928 Y52.975 E54.1333
G1 X81.021 Y52.935 E54.13973
G1 X92.6 Y52.943 E54.87548
G1 X138.967 Y52.943 E57.82172
G1 X139.08 Y52.979 E57.82925
G1 X139.256 Y53.092 E57.84254
G1 X139.376 Y53.279 E57.85666
G1 X139.416 Y53.372 E57.86309
G1 X139.408 Y64.101 E58.54483
G1 X139.408 Y96.318 E60.59195
G1 X139.372 Y96.431 E60.59949
G1 X139.259 Y96.607 E60.61278
G1 X139.072 Y96.727 E60.6269
G1 X138.979 Y96.767 E60.63333
G1 X127.4 Y96.759 E61.36908
G1 F2100 E55.86908
G1 F600 Z0.5
G0 F7500 X84.522 Y78.15 Z0.5
G1 F600 Z0.3
G1 F3000 E61.36908
G1 F1500 X85.16 Y78.023 E61.41041
G1 X85.72 Y77.649 E61.4532
G1 X86.093 Y77.09 E61.4959
G1 X86.22 Y76.452 E61.53724
G1 X86.22 Y57.408 E62.74732
G1 X86.093 Y56.77 E62.78866
G1 X85.72 Y56.21 E62.83141
G1 X85.16 Y55.837 E62.87417
G1 X84.522 Y55.71 E62.9155
G1 X80.78 Y55.71 E63.15328
G1 X80.78 Y78.15 E63.76251
G1 X84.522 Y78.15 E64.00029
G1 F2100 E58.50029
G1 F600 Z0.5
G0 F7500 X127.4 Y96.319 Z0.5
;TYPE:WALL-INNER
G1 F600 Z0.3
G1 F3000 E64.00029
G1 F1500 X81.266 Y96.319 E66.93172
G1 X81.105 Y96.319 E66.94195
G1 X81.062 Y96.292 E66.94517
G1 X81.024 Y96.232 E66.94968
G1 X81.024 Y96.071 E66.95991
G1 X81.032 Y85.601 E67.6252
G1 X81.032 Y78.59 E68.07069
G1 X84.565 Y78.59 E68.29518
G1 X85.332 Y78.437 E68.34488
G1 X86.037 Y77.966 E68.39875
G1 X86.507 Y77.262 E68.45254
G1 X86.66 Y76.495 E68.50223
G1 X86.66 Y57.365 E69.71778
G1 X86.508 Y56.599 E69.76741
G1 X86.037 Y55.893 E69.82133
G1 X85.331 Y55.422 E69.87526
G1 X84.565 Y55.27 E69.92488
G1 X81.032 Y55.27 E70.14938
G1 X81.032 Y53.617 E70.25441
G1 X81.032 Y53.456 E70.26464
G1 X81.059 Y53.413 E70.26787
G1 X81.119 Y53.375 E70.27238
G1 X81.28 Y53.375 E70.28261
G1 X92.6 Y53.383 E71.0019
G1 X138.734 Y53.383 E73.93333
G1 X138.895 Y53.383 E73.94356
G1 X138.938 Y53.41 E73.94679
G1 X138.976 Y53.47 E73.9513
G1 X138.976 Y53.631 E73.96153
G1 X138.968 Y64.101 E74.62681
G1 X138.968 Y96.085 E76.65913
G1 X138.968 Y96.246 E76.66936
G1 X138.941 Y96.289 E76.67258
G1 X138.881 Y96.327 E76.6771
G1 X138.72 Y96.327 E76.68733
G1 X127.4 Y96.319 E77.40662
G0 F7500 X127.4 Y95.889
;TYPE:SKIN
G1 F1500 X81.454 Y95.889 E80.3261
G1 X81.462 Y85.601 E80.97982
G1 X81.462 Y79.02 E81.39799
G1 X84.608 Y79.02 E81.59789
G1 X85.5 Y78.842 E81.65568
G1 X86.347 Y78.276 E81.72041
G1 X86.912 Y77.43 E81.78506
G1 X87.09 Y76.538 E81.84285
G1 X87.09 Y57.322 E83.06387
G1 X86.913 Y56.431 E83.12159
G1 X86.347 Y55.583 E83.18637
G1 X85.499 Y55.017 E83.25116
G1 X84.608 Y54.84 E83.30888
G1 X81.462 Y54.84 E83.50878
G1 X81.462 Y53.805 E83.57455
G1 X92.6 Y53.813 E84.28227
G1 X138.546 Y53.813 E87.20176
G1 X138.538 Y64.101 E87.85547
G1 X138.538 Y95.897 E89.87584
G1 X127.4 Y95.889 E90.58357
G1 F2100 E85.08357
G1 F600 Z0.5
G0 F7500 X138.369 Y54.365 Z0.5
G1 F600 Z0.3
G1 F3000 E90.58357
G1 F1500 X137.993 Y53.989 E90.61736
G0 F7500 X137.371 Y53.989
G1 F1500 X138.368 Y54.986 E90.70695
G0 F7500 X138.368 Y55.608
G1 F1500 X136.748 Y53.989 E90.85248
G0 F7500 X136.126 Y53.989
G1 F1500 X138.368 Y56.23 E91.05391
G0 F7500 X138.367 Y56.852
G1 F1500 X135.504 Y53.989 E91.31118
G0 F7500 X134.882 Y53.989
G1 F1500 X138.366 Y57.473 E91.62426
G0 F7500 X138.366 Y58.095
G1 F1500 X134.259 Y53.989 E91.99327
G0 F7500 X133.637 Y53.989
G1 F1500 X138.365 Y58.717 E92.41814
G0 F7500 X138.365 Y59.338
G1 F1500 X133.015 Y53.989 E92.89885
G0 F7500 X132.393 Y53.989
G1 F1500 X138.364 Y59.96 E93.43541
G0 F7500 X138.364 Y60.582
G1 F1500 X131.77 Y53.989 E94.02791
G0 F7500 X131.148 Y53.989
G1 F1500 X138.363 Y61.204 E94.67626
G0 F7500 X138.363 Y61.825
G1 F1500 X130.526 Y53.989 E95.38046
G0 F7500 X129.904 Y53.989
G1 F1500 X138.362 Y62.447 E96.14051
G0 F7500 X138.362 Y63.069
G1 F1500 X129.281 Y53.989 E96.9565
G0 F7500 X128.659 Y53.989
G1 F1500 X138.361 Y63.691 E97.82833
G0 F7500 X138.36 Y64.312
G1 F1500 X128.037 Y53.989 E98.75597
G0 F7500 X127.414 Y53.989
G1 F1500 X138.36 Y64.935 E99.7396
G0 F7500 X138.36 Y65.557
G1 F1500 X126.792 Y53.989 E100.77911
G0 F7500 X126.17 Y53.989
G1 F1500 X138.36 Y66.179 E101.87453
G0 F7500 X138.36 Y66.801
G1 F1500 X125.548 Y53.989 E103.02583
G0 F7500 X124.925 Y53.989
G1 F1500 X138.36 Y67.424 E104.23312
G0 F7500 X138.36 Y68.046
G1 F1500 X124.303 Y53.989 E105.4963
G0 F7500 X123.681 Y53.989
G1 F1500 X138.36 Y68.668 E106.81538
G0 F7500 X138.36 Y69.29
G1 F1500 X123.059 Y53.989 E108.19035
G0 F7500 X122.436 Y53.989
G1 F1500 X138.36 Y69.913 E109.6213
G0 F7500 X138.36 Y70.535
G1 F1500 X121.814 Y53.989 E111.10815
G0 F7500 X121.192 Y53.989
G1 F1500 X138.36 Y71.157 E112.65089
G0 F7500 X138.36 Y71.779
G1 F1500 X120.57 Y53.989 E114.24952
G0 F7500 X119.947 Y53.989
G1 F1500 X138.36 Y72.402 E115.90414
G0 F7500 X138.36 Y73.024
G1 F1500 X119.325 Y53.989 E117.61466
G0 F7500 X118.703 Y53.989
G1 F1500 X138.36 Y73.646 E119.38106
G0 F7500 X138.36 Y74.268
G1 F1500 X118.081 Y53.989 E121.20336
G0 F7500 X117.458 Y53.989
G1 F1500 X138.36 Y74.891 E123.08165
G0 F7500 X138.36 Y75.513
G1 F1500 X116.836 Y53.989 E125.01582
G0 F7500 X116.214 Y53.989
G1 F1500 X138.36 Y76.135 E127.00589
G0 F7500 X138.36 Y76.757
G1 F1500 X115.592 Y53.989 E129.05186
G0 F7500 X114.969 Y53.989
G1 F1500 X138.36 Y77.38 E131.15381
G0 F7500 X138.36 Y78.002
G1 F1500 X114.347 Y53.989 E133.31165
G0 F7500 X113.725 Y53.989
G1 F1500 X138.36 Y78.624 E135.52539
G0 F7500 X138.36 Y79.246
G1 F1500 X113.103 Y53.989 E137.79502
G0 F7500 X112.48 Y53.989
G1 F1500 X138.36 Y79.869 E140.12063
G0 F7500 X138.36 Y80.491
G1 F1500 X111.858 Y53.989 E142.50214
G0 F7500 X111.236 Y53.989
G1 F1500 X138.36 Y81.113 E144.93954
G0 F7500 X138.36 Y81.735
G1 F1500 X110.614 Y53.989 E147.43284
G0 F7500 X109.991 Y53.989
G1 F1500 X138.36 Y82.358 E149.98212
G0 F7500 X138.36 Y82.98
G1 F1500 X109.369 Y53.989 E152.58729
G0 F7500 X108.747 Y53.989
G1 F1500 X138.36 Y83.602 E155.24836
G0 F7500 X138.36 Y84.224
G1 F1500 X108.125 Y53.989 E157.96532
G0 F7500 X107.502 Y53.989
G1 F1500 X138.36 Y84.847 E160.73826
G0 F7500 X138.36 Y85.469
G1 F1500 X106.88 Y53.989 E163.5671
G0 F7500 X106.258 Y53.989
G1 F1500 X138.36 Y86.091 E166.45183
G0 F7500 X138.36 Y86.713
G1 F1500 X105.636 Y53.989 E169.39246
G0 F7500 X105.013 Y53.989
G1 F1500 X138.36 Y87.336 E172.38907
G0 F7500 X138.36 Y87.958
G1 F1500 X104.391 Y53.989 E175.44157
G0 F7500 X103.769 Y53.989
G1 F1500 X138.36 Y88.58 E178.54997
G0 F7500 X138.36 Y89.202
G1 F1500 X103.147 Y53.989 E181.71426
G0 F7500 X102.524 Y53.989
G1 F1500 X138.36 Y89.825 E184.93453
G0 F7500 X138.36 Y90.447
G1 F1500 X101.902 Y53.989 E188.2107
